X:265
T:Agora non (Arrg.)
R:Añada
C:Tradicional
S:Música Tradicional Asturiana, (C) Tello & Tito. Asturies, 2001.
S:http://pagina.de/MusTradAst <telloytito@asturies.org>
N:La pieza está en LAb
A:Asturies
G:Arrg.
Z:Les cuarenta principales
M:6/8
L:1/8
Q:3/8=30
K:Fm
V:1
C/C/
|"Fm"F2 =E/F/ A2 G/A/|"Bbm"BBB "Fm"A A2-|"Fm"A3-A2 C/C/|
|"Fm"F2 =E/F/ A2 G/A/|"Eb"BAG "Fm"F2 G/F/|"C"=E6-|"C"=E3 C"Fm"FA|
|"Fm"c3-c2 c|"Bbm"B2 c/B/ "Fm"A3-|"Fm"A3 "C"G3|"Fm"A3 "C"G2 A/G/|"Fm"F6-|"Fm"F3-F2 


